X:1
T:Vals efter Petter Olas Anna
L:1/8
M:3/4
I:linebreak $
K:A
V:1 treble 
V:1
 a2 g2 a2 | e4 c2 | ed BG BG | A2 c2 e2 | a2 g2 a2 | e4 c2 | ed BG BG | A4 z2 :: A2 =c2 c2 | %9
 d=c BA G2 |$ G2 B2 d2 | d=c Bc A2 | A2 =c2 c2 | d=c BA G2 | GB d=c Bc | A4 z2 :| %16
